tools/download-figma-icons/icons/outlined-large/heat.svg

<svg width="64" height="64" viewBox="0 0 64 64" fill="none" xmlns="http://www.w3.org/2000/svg">
<path fill-rule="evenodd" clip-rule="evenodd" d="M42.1039 29.9345C48.1179 34.1965 49.9869 38.2864 50.3789 41.2644C52.6509 38.8434 55.2259 35.3704 54.9839 31.7725C54.8009 29.0405 52.9959 26.4435 49.6219 24.0515L39.3919 16.8005C33.377 12.5376 31.509 8.44657 31.116 5.46959C28.844 7.89057 26.27 11.3636 26.511 14.9615C26.695 17.6935 28.499 20.2905 31.873 22.6825L42.1039 29.9345ZM51.3569 21.6045C55.5029 24.5425 57.7309 27.8965 57.9779 31.5715C58.4089 37.9914 52.5819 43.4284 50.0939 45.7494C49.8649 45.9634 49.6629 46.1524 49.4959 46.3134C49.2069 46.5914 48.8309 46.7344 48.4539 46.7344C48.1419 46.7344 47.8289 46.6374 47.5629 46.4404C46.9739 46.0044 46.7849 45.2074 47.1169 44.5544C47.2149 44.3454 49.6289 38.9434 40.3689 32.3815L30.139 25.1295C25.992 22.1915 23.765 18.8385 23.518 15.1625C23.086 8.74378 28.9126 3.30595 31.4007 0.983836L31.401 0.983608C31.63 0.770609 31.832 0.58161 31.999 0.42061C32.528 -0.0883871 33.345 -0.140387 33.933 0.293611C34.522 0.729609 34.71 1.52661 34.378 2.1796C34.28 2.3876 31.866 7.78958 41.1259 14.3535L51.3569 21.6045ZM24.6089 47.1991C30.6229 51.4611 32.4919 55.552 32.8839 58.53C35.1559 56.109 37.7309 52.6361 37.4889 49.0381C37.3059 46.3061 35.5019 43.7091 32.1279 41.3171L21.8969 34.0652C15.882 29.8032 14.014 25.7122 13.622 22.7352C11.349 25.1552 8.77499 28.6282 9.01599 32.2262C9.19899 34.9581 11.004 37.5561 14.378 39.9481L24.6089 47.1991ZM23.6309 31.6182L33.8629 38.8701C38.0079 41.8081 40.2358 45.1621 40.4828 48.8371C40.9138 55.257 35.0869 60.694 32.5989 63.015C32.3699 63.229 32.1679 63.418 32.0009 63.579C31.7119 63.857 31.3359 64 30.9589 64C30.6469 64 30.3339 63.903 30.0679 63.706C29.4789 63.27 29.2899 62.473 29.6219 61.82C29.7199 61.612 32.1349 56.208 22.8739 49.6461L12.644 42.3951C8.49699 39.4571 6.27 36.1031 6.023 32.4272C5.59214 26.0092 11.4163 20.5736 13.9056 18.2504L13.908 18.2482C14.137 18.0352 14.338 17.8472 14.505 17.6862C15.033 17.1762 15.85 17.1252 16.439 17.5592C17.028 17.9952 17.216 18.7922 16.884 19.4452C16.786 19.6542 14.372 25.0552 23.6309 31.6182Z" fill="black"/>
</svg>

<svg width="64" height="64" viewBox="0 0 64 64" fill="none" xmlns="http://www.w3.org/2000/svg"><path fill-rule="evenodd" clip-rule="evenodd" d="M42.104 29.934c6.014 4.262 7.883 8.352 8.275 11.33 2.272-2.42 4.847-5.894 4.605-9.492-.183-2.731-1.988-5.328-5.362-7.72L39.392 16.8c-6.015-4.262-7.883-8.353-8.276-11.33-2.272 2.42-4.846 5.894-4.605 9.491.184 2.732 1.988 5.33 5.362 7.722l10.23 7.252Zm9.253-8.33c4.146 2.939 6.374 6.293 6.62 9.968.432 6.42-5.395 11.856-7.883 14.177-.23.214-.431.403-.598.564a1.502 1.502 0 0 1-1.933.127 1.5 1.5 0 0 1-.446-1.886c.098-.209 2.512-5.61-6.748-12.172l-10.23-7.252c-4.147-2.938-6.374-6.291-6.621-9.967-.432-6.42 5.395-11.857 7.883-14.18.229-.212.431-.401.598-.562a1.5 1.5 0 0 1 2.379 1.759c-.098.208-2.512 5.61 6.748 12.174l10.23 7.25ZM24.609 47.2c6.014 4.262 7.883 8.353 8.275 11.331 2.272-2.421 4.847-5.894 4.605-9.492-.183-2.732-1.987-5.329-5.361-7.72l-10.231-7.253c-6.015-4.262-7.883-8.353-8.275-11.33-2.273 2.42-4.847 5.893-4.606 9.491.183 2.732 1.988 5.33 5.362 7.722l10.23 7.251Zm-.978-15.58 10.232 7.251c4.145 2.938 6.373 6.292 6.62 9.967.43 6.42-5.396 11.857-7.884 14.178-.23.214-.431.403-.598.564a1.502 1.502 0 0 1-1.933.127 1.5 1.5 0 0 1-.446-1.886c.098-.208 2.513-5.612-6.748-12.174l-10.23-7.25c-4.147-2.939-6.374-6.293-6.621-9.969-.43-6.418 5.393-11.853 7.883-14.177l.002-.002c.229-.213.43-.4.597-.562a1.501 1.501 0 0 1 2.379 1.76c-.098.208-2.512 5.61 6.747 12.172Z" fill="currentColor"/></svg>
